app/src/main/assets/symbols/transport/level_crossing.svg

<?xml version="1.0" encoding="UTF-8" standalone="no"?>
<svg
   xmlns:dc="http://purl.org/dc/elements/1.1/"
   xmlns:cc="http://creativecommons.org/ns#"
   xmlns:rdf="http://www.w3.org/1999/02/22-rdf-syntax-ns#"
   xmlns:svg="http://www.w3.org/2000/svg"
   xmlns="http://www.w3.org/2000/svg"
   xmlns:sodipodi="http://sodipodi.sourceforge.net/DTD/sodipodi-0.dtd"
   xmlns:inkscape="http://www.inkscape.org/namespaces/inkscape"
   width="7"
   height="7"
   viewBox="0 0 7 7"
   id="svg2"
   version="1.1"
   inkscape:version="0.91 r13725"
   sodipodi:docname="level_crossing.svg">
  <metadata
     id="metadata10">
    <rdf:RDF>
      <cc:Work
         rdf:about="">
        <dc:format>image/svg+xml</dc:format>
        <dc:type
           rdf:resource="http://purl.org/dc/dcmitype/StillImage" />
      </cc:Work>
    </rdf:RDF>
  </metadata>
  <defs
     id="defs8" />
  <sodipodi:namedview
     pagecolor="#ffffff"
     bordercolor="#666666"
     borderopacity="1"
     objecttolerance="10"
     gridtolerance="10"
     guidetolerance="10"
     inkscape:pageopacity="0"
     inkscape:pageshadow="2"
     inkscape:window-width="1536"
     inkscape:window-height="801"
     id="namedview6"
     showgrid="false"
     inkscape:zoom="33.714286"
     inkscape:cx="-5.7690678"
     inkscape:cy="3.5"
     inkscape:window-x="-8"
     inkscape:window-y="32"
     inkscape:window-maximized="1"
     inkscape:current-layer="svg2" />
  <path
     d="m 1.2754237,1.2754237 0.9533899,0 L 3.5,2.5466102 4.7711864,1.2754237 l 0.9533899,0 0,0.9533899 L 4.4533898,3.5 l 1.2711865,1.2711864 0,0.9533899 -0.9533899,0 L 3.5,4.4533898 2.2288136,5.7245763 l -0.9533899,0 0,-0.9533899 L 2.5466102,3.5 1.2754237,2.2288136 Z"
     id="halo"
     inkscape:connector-curvature="0"
     style="fill:#ffffff" />
  <path
     d="m 1.4491525,1.4491525 0,0.341808 L 3.1581921,3.5 1.4491525,5.2090395 l 0,0.341808 0.341808,0 L 3.5,3.8418079 l 1.7090395,1.7090396 0.341808,0 0,-0.341808 L 3.8418079,3.5 5.5508475,1.7909605 l 0,-0.341808 -0.341808,0 L 3.5,3.1581921 1.7909605,1.4491525 Z"
     id="crossing"
     inkscape:connector-curvature="0"
     style="fill:#4d4d4d" />
</svg>

<?xml version="1.0" encoding="UTF-8"?>
<svg id="b" width="7" height="7" version="1.1" viewBox="0 0 7 7" xmlns="http://www.w3.org/2000/svg" xmlns:cc="http://creativecommons.org/ns#" xmlns:dc="http://purl.org/dc/elements/1.1/" xmlns:rdf="http://www.w3.org/1999/02/22-rdf-syntax-ns#">
<metadata id="c">
<rdf:RDF>
<cc:Work rdf:about="">
<dc:format>image/svg+xml</dc:format>
<dc:type rdf:resource="http://purl.org/dc/dcmitype/StillImage"/>
</cc:Work>
</rdf:RDF>
</metadata>
<path id="d" d="m1.2754 1.2754h0.95339l1.2712 1.2712 1.2712-1.2712h0.95339v0.95339l-1.2712 1.2712 1.2712 1.2712v0.95339h-0.95339l-1.2712-1.2712-1.2712 1.2712h-0.95339v-0.95339l1.2712-1.2712-1.2712-1.2712z" fill="#fff"/>
<path id="a" d="m1.4492 1.4492v0.34181l1.709 1.709-1.709 1.709v0.34181h0.34181l1.709-1.709 1.709 1.709h0.34181v-0.34181l-1.709-1.709 1.709-1.709v-0.34181h-0.34181l-1.709 1.709-1.709-1.709z" fill="#4d4d4d"/>
</svg>
